X: 3369
T: HEY! JOHNNIE COPE
%R: march, reel
B: James Kerr "Merry Melodies" v.3 p.41 #369
Z: 2016 John Chambers <jc:trillian.mit.edu>
M: 2/4
L: 1/16
K: Bm
f2 |\
B2B2 Bcde | f2B2B2 (cB) | A2A2 ABcd | e2a2c2A2 |\
d2cd e2de | f2a2c2 (BA) | B2b2 fedc | B4-B2 :|
|: A2 |\
d3dd2A2 | defg afed | c2A2e2A2 | cdef e2c2 |\
d2cd e2de | f2a2c2 (BA) | B2b2 fedc | B4-B2 :|

%%sep 1 1 500
%%sep 1 1 500

